dist/img/svg/handset.svg

<svg width="18" height="18" viewBox="0 0 18 18" fill="none" xmlns="http://www.w3.org/2000/svg">
<path d="M16.4775 13.7475C16.4775 14.0175 16.4175 14.295 16.29 14.565C16.1625 14.835 15.9975 15.09 15.78 15.33C15.4125 15.735 15.0075 16.0275 14.55 16.215C14.1 16.4025 13.6125 16.5 13.0875 16.5C12.3225 16.5 11.505 16.32 10.6425 15.9525C9.78 15.585 8.9175 15.09 8.0625 14.4675C7.2 13.8375 6.3825 13.14 5.6025 12.3675C4.83 11.5875 4.1325 10.77 3.51 9.915C2.895 9.06 2.4 8.205 2.04 7.3575C1.68 6.5025 1.5 5.685 1.5 4.905C1.5 4.395 1.59 3.9075 1.77 3.4575C1.95 3 2.235 2.58 2.6325 2.205C3.1125 1.7325 3.6375 1.5 4.1925 1.5C4.4025 1.5 4.6125 1.545 4.8 1.635C4.995 1.725 5.1675 1.86 5.3025 2.055L7.0425 4.5075C7.1775 4.695 7.275 4.8675 7.3425 5.0325C7.41 5.19 7.4475 5.3475 7.4475 5.49C7.4475 5.67 7.395 5.85 7.29 6.0225C7.1925 6.195 7.05 6.375 6.87 6.555L6.3 7.1475C6.2175 7.23 6.18 7.3275 6.18 7.4475C6.18 7.5075 6.1875 7.56 6.2025 7.62C6.225 7.68 6.2475 7.725 6.2625 7.77C6.3975 8.0175 6.63 8.34 6.96 8.73C7.2975 9.12 7.6575 9.5175 8.0475 9.915C8.4525 10.3125 8.8425 10.68 9.24 11.0175C9.63 11.3475 9.9525 11.5725 10.2075 11.7075C10.245 11.7225 10.29 11.745 10.3425 11.7675C10.4025 11.79 10.4625 11.7975 10.53 11.7975C10.6575 11.7975 10.755 11.7525 10.8375 11.67L11.4075 11.1075C11.595 10.92 11.775 10.7775 11.9475 10.6875C12.12 10.5825 12.2925 10.53 12.48 10.53C12.6225 10.53 12.7725 10.56 12.9375 10.6275C13.1025 10.695 13.275 10.7925 13.4625 10.92L15.945 12.6825C16.14 12.8175 16.275 12.975 16.3575 13.1625C16.4325 13.35 16.4775 13.5375 16.4775 13.7475Z" stroke="currentColor" stroke-width="1.5" stroke-miterlimit="10"/>
<path d="M13.875 6.75C13.875 6.3 13.5225 5.61 12.9975 5.0475C12.5175 4.53 11.88 4.125 11.25 4.125" stroke="currentColor" stroke-width="1.5" stroke-linecap="round" stroke-linejoin="round"/>
<path d="M16.5 6.75C16.5 3.8475 14.1525 1.5 11.25 1.5" stroke="currentColor" stroke-width="1.5" stroke-linecap="round" stroke-linejoin="round"/>
</svg>

<svg width="18" height="18" viewBox="0 0 18 18" fill="none" xmlns="http://www.w3.org/2000/svg"><path d="M16.477 13.748c0 .27-.06.547-.187.817-.127.27-.292.525-.51.765a3.381 3.381 0 01-1.23.885 3.76 3.76 0 01-1.463.285c-.764 0-1.582-.18-2.444-.547a13.173 13.173 0 01-2.58-1.486 21.563 21.563 0 01-2.46-2.1A21.31 21.31 0 013.51 9.915c-.615-.855-1.11-1.71-1.47-2.557-.36-.855-.54-1.673-.54-2.453 0-.51.09-.998.27-1.448a3.46 3.46 0 01.862-1.252c.48-.473 1.006-.705 1.56-.705.21 0 .42.045.608.135.195.09.368.225.503.42l1.74 2.453c.135.187.232.36.3.524.067.158.104.316.104.458 0 .18-.052.36-.157.532-.098.173-.24.353-.42.533l-.57.593a.401.401 0 00-.12.3c0 .06.008.112.022.172.023.06.045.105.06.15.136.248.368.57.698.96.338.39.697.787 1.087 1.185.405.398.795.765 1.193 1.103.39.33.713.554.967.69.038.014.083.037.135.06.06.022.12.03.188.03a.413.413 0 00.308-.128l.57-.563c.187-.187.367-.33.54-.42a.999.999 0 01.532-.157c.143 0 .293.03.457.098a2.9 2.9 0 01.526.292l2.482 1.762c.195.136.33.293.413.48.075.188.12.375.12.585z" stroke="currentColor" stroke-width="1.5" stroke-miterlimit="10"/><path d="M13.875 6.75c0-.45-.352-1.14-.877-1.702-.48-.518-1.118-.923-1.748-.923M16.5 6.75a5.246 5.246 0 00-5.25-5.25" stroke="currentColor" stroke-width="1.5" stroke-linecap="round" stroke-linejoin="round"/></svg>
